X:1
T:Fost et Méfistoléfesse
T:Transcription de Eine Faust Symphonie pour Piano (F. Liszt)
%%score { 1 | 2 }
L:1/8
Q:1/4=100
M:4/4
K:Eb
V:1 treble nm="Piano" snm="Pno."
V:2 bass 
V:1
 E2- E/=B,/B,/E/ E/D/D/^C/ C/=C/C/B,/ | D3 ^C =CAG^F | F_Fed z AGD |[K:Eb] F3 =E _E z2 E/>A/ | %4
 A2- A/=E/E/A/ A/G/G/^F/ F/=F/F/E/ | G3 ^F =F_dc=B | B__Bag z _dcG | B3 =A _A z2 A/>[Q:1/4=140]f/ | %8
 f2- f/c/c/f/ e/_d/A/F/ z/ F/A/^c/ | f2- f/c/c/f/ e/_d/A/F/ z/ F/A/^c/ | %10
 _g2- g/d/d/g/ f/e/B/_G/ z/ ^F/B/e/ | _g2- g/d/d/g/ f/e/B/_G/ z/ ^F/B/e/ | %12
[Q:1/4=150] (6:4:6[^FB^c^f]/B/F/B/F/B/ (6:4:6G/B/G/B/G/B/ G z/ [Gg]/ B/[=A=a][Bb]/ | %13
 [Bb]2 B2 [Bdfb][Bb] c'>[dd'] | [dd']2 [EBe]3 [cc'] d'>[ee'] | [ee']2 [EBe]3 [cc'] d'>[ee'] | %16
 [ee']e =B,/ z/ [Cc] B,/ z/ [Cc] B,/ z/ [Cc] |[Q:1/4=160] =B,DA=B d^f (3[ee'][ee'][ee'] | %18
[Q:1/4=170] [ee']e =B,/ z/ [Cc] B,/ z/ [Cc] B,/ z/ [Cc] | %19
[Q:1/4=180] =B,DA=B d^f (3[ee'][ee'][ee'] | %20
[M:6/8][Q:1/4=190] [ee'][=B=b][ee'] z/ [ee']/[dd']/[^c^c']/[=c=c']/[Bb]/ | %21
 [dd'][^c^c'][=c=c'] z ag | [^fac']=f=e [_eac']d^c | c=B_B [d=bd']GD | %24
 [g=bg'][gbg'][gbg'] [gbg'][gbg'][gbg'] | [gc'g']2 z z/ c/d/e/f/g/ | %26
 [aa'][=e_f'][aa'] z/ [aa']/[gg']/[^f^f']/[=f=f']/[e=e']/ | [gg'][^f^f'][=f=f'] z _dc | %28
 [f_d'f']B=A [fd'f']G^F | F=E_E [c'=e'g']_DC | [c'=e'g'][c'e'g'][c'e'g'] [c'e'g'][c'e'g'][c'e'g'] | %31
 [fc'f']C=E FAc |{/=e'} [ff'][_d_d']{/e'}[ff'] c'/f/=e/_e/d/c/ |{/e} _dA_D z/ A/B/c/d/e/ | %34
{/=e'} [ff'][_d_d']{/e'}[ff'] c'/f/=e/_e/d/c/ |{/e} _dA_D z/ f/_g/a/b/c'/ | %36
[K:A]{/^b'} [c'c''][aa']{/^b}c' z/ c'/[g=b]/^a/=a/g/ |{/b} aeA z/ e/f/g/a/b/ | %38
{/^b'} [c'c''][aa']{/^b}c' z/ c'/[g=b]/^a/=a/g/ |{/b} aeA z/ e/f/g/a/b/ |{/b} aeA z/ e/f/g/a/b/ | %41
{/b} aeA{/b} afa |{/c'} b[ff']{/d'}b [c'c'']ac' | %43
[M:4/4][Q:1/4=140] e'd'/c'/ b/a/g/a/ b/c'/d'/e'/ f' z | ag/f/ e/d/c/d/ e/f/g/a/{/c'} b z | %45
 f>e d/c/B/^A/ c/B/=A/G/ F/E/D/E/ | F/G/A/^A/ c/B/A/B/ c/d/^d/e/ f/e/f/g/ | %47
[M:6/8][Q:1/4=190]{/b} aeA z/ e/f/g/a/b/ |{/b} aeA{/b} afa |{/c'} b[ff']{/d'}b [c'c'']ac' | %50
[M:4/4][Q:1/4=140] e'd'/c'/ b/a/g/a/ b/c'/d'/e'/ f' z | ag/f/ e/d/c/d/ e/f/g/a/{/c'} b z | %52
 f>e d/c/B/^A/ c/B/=A/G/ F/E/D/E/ | F/G/A/^A/ c/B/A/B/ c/d/^d/e/ f/e/f/g/ | %54
[M:6/8][Q:1/4=190]{/b} aeA z/ e/f/g/a/b/ |{/b} aeA z/ c/d/e/f/g/ | %56
[M:4/4][Q:1/4=140]{/b} (3aeA z [Aa] z [Aa] z [Aa] | %57
[M:6/8][Q:1/4=190]{/=c'} (3_b=f_B z d/_e/=e/f/=g/a/ | (3_b=f_B z d/_e/=e/f/=g/a/ | %59
[M:4/4][Q:1/4=140]{/^b} (3^a^e^A z [Aca] z [Aca] z [Aca] | %60
[M:6/8][Q:1/4=190]{/c'} (3bfB z ^d/e/^e/f/g/^a/ | (3bfB z ^d/e/^e/f/g/^a/ | %62
[M:4/4][Q:1/4=140]{/c'} (3bfB z [Bdb] z [Bdb] z [Bdb] | %63
 =c'[ec'] (3z e[e=fc'] (3=ga[e_bc'] (3c'd'[ec'e'] | %64
 =f'[Q:1/4=130][=f=c'] (3z e[Q:1/4=120][efc'] (3^f=g[Q:1/4=110][f^gc'] (3ab[fc'] | %65
[Q:1/4=120] (3[fc']/^d'/c'/ z[Q:1/4=130] (3[Ff]/g/[Ff]/ z[Q:1/4=140] (3[=F=f]/g/[Ff]/ z (3[^dd']/^e'/[dd']/ z | %66
 [ff'][cc']fc (3[^A,CF^A][CFAc][FAcf] (3[Acf^a][cfac'][fac'f'] | %67
 (3[fc']/^d'/c'/ z (3[Ff]/g/[Ff]/ z (3[Gg]/^a/[Gg]/ z (3[^dd']/^e'/[dd']/ z | %68
 [ff'][cc']fc (3[^A,CF^A][CFAc][FAcf] (3[Acf^a][cfac'][fac'f'] | %69
 (3[ac'e']/f'/[ee']/ z (3[Aa]/b/[Aa]/ z (3[cc']/d'/[cc']/ z (3[ff']/g'/[ff']/ z | %70
 [aa'][ee']ae (3[CEAc][EAce][Acea] (3[ceac'][eac'e'][ac'e'a'] | %71
 (3[ac'e']/f'/[ee']/ z (3[Aa]/b/[Aa]/ z (3[cc']/d'/[cc']/ z (3[ff']/g'/[ff']/ z | %72
 [aa'][ee']ae (3[CEAc][EAce][Acea] (3[ceac'][eac'e'][ac'e'a'] | %73
 [a=f'a'][^ef']a=f (3[C=FAc][FAcf][FAcfa] (3[cfac'][fac'f'][ac'f'a'] | %74
 [af'a'][ff']af (3[CFAc][=FAcf][FAcfa] (3[cfac'][=fac'f'][ac'f'a'] | %75
 (3[CA]/[DA]/[CA]/ z/ z/ (3[=G,A]/[A,A]/[G,A]/ z/ z/ (3[CA]/[DA]/[CA]/ z/ z/ (3[GA]/A/[GA]/ z/ z/ | %76
 (3[CA]/[DA]/[CA]/ z/ z/ (3[=G,A]/[A,A]/[G,A]/ z/ z/ (3[CA]/[DA]/[CA]/ z/ z/ (3[GA]/A/[GA]/ z/ z/ | %77
 (3[=CA]/[DA]/[CA]/ z/ z/ (3[=G,A]/[A,A]/[G,A]/ z/ z/ (3[CA]/[DA]/[CA]/ z/ z/ (3[GA]/A/[GA]/ z/ z/ | %78
 (3[=CA]/[DA]/[CA]/ z/ z/ (3[=G,A]/[A,A]/[G,A]/ z/ z/ (3[CA]/[DA]/[CA]/ z/ z/ (3[^^FA]/A/[FA]/ z/ z/ | %79
[K:C] (3[ceg]/a/g/ z (3[cc']/d'/[cc']/ z (3[FAd]/e/d/ z (3a/b/a/ z | %80
 [Ec][Gg]c'g (3[G,CE][CEG][EGc] (3[Gce][ceg][egc'] | %81
 (3[ceg]/a/g/ z (3[cc']/d'/[cc']/ z (3[FAd]/e'/[dd']/ z (3a/b/a/ z | %82
 [Ec][Gg]c'g (3[G,CE][CEG][EGc] (3[Gce][ceg][egc'] | %83
[M:3/4] (3[ceac']/d'/c'/ z (3[B^d^fb]/c'/b/ z (3a/b/a/[Aa] | %84
 (3[GBeg]/a/g/ z (3[G_Bf]/g/f/ z (3e/f/e/e | (3[FAd]/e/d/ z (3[_E^Fc]/d/c/ z (3[DGB]/c/B/ z | %86
 (3[C_EA]/B/A/ z (3[B,DG]/A/G/ z (3[CFc]/G/F/ z | (3[^CEB]/F/E/ z (3[DA]/E/D/ z (3[=CG]/D/C/ z | %88
 (3[B,^F]/[CE]/[B,D]/ z (3[A,D]/[B,E]/[A,=F]/G/A/ (3B/c/d/e/f/ | %89
[M:4/4] (3[egc'e']/a/g/ z (3[cc']/d'/[cc']/ z (3[dd']/e'/[dd']/ z (3a/b/a/ z | %90
 [cc'][Gg]c'g (3[G,CE][CEG][EGc] (3[Gce][ceg][egc'] | %91
 (3[egc'e']/a/g/ z (3[cc']/d'/[cc']/ z (3[dd']/[ee']/[dd']/ z (3a/b/a/ z | %92
 [cc'][Gg]c'g (3[G,CE][CEG][EGc] (3[Gce][ceg][egc'] | %93
[M:3/4] (3[ceac']/d'/c'/ z (3[B^d^fb]/c'/b/ z (3a/b/a/[Aa] | %94
 (3[GBeg]/a/g/ z (3[^CG_Bf]/g/f/ z (3e/f/e/e | (3[FAd]/e/d/ z (3[_E^Fc]/d/c/ z (3[DGB]/c/B/ z | %96
 (3[C_EA]/B/A/ z (3[B,DG]/A/G/ z (3[CFc]/G/F/ z | (3[^CEB]/F/E/ z (3[DA]/E/D/ z (3[=CG]/D/C/ z | %98
 (3[B,^F]/[CE]/[B,D]/ z (3A,/B,/A,/ z/ z/ (3_A,/_B,/A,/ z/ z/ | [G,D]2 [DGd]2 A,>C | %100
 CB,/ z/ [B,A]B, [B,^F][B,G] | z2 [DGd]2 A,>C | CB,/ z/ [B,A]B, [B,^F][B,G] | z2 [Gcg]2 _D>F | %104
 FE/ z/ [E_d]E [EB][Ec] | z2 [Gcg]2 _D>F | FE/ z/ [E_d]E [EB][Ec] | GF/ z/ [F_e]F [Fc][F_d] | %108
 _A_G/ z/ [Gf]G [Gd][G_e] | _B_A/ z/ [A_g]A [Ae][Af] | _dc/ z/ [c_a]c [cf][c_g] | %111
 (3[ca][cg][Ec] (3f'e'[Ec] (3[cf][Ece][Ec] | (3d'[cc'][_Ec] (3[E_Gcd][Ec][Ec] (3[cb][ca][Ec] | %113
 (3[DABc][DAc][Dc] (3[cg][cf][Dc] (3[DGc][DFc][Dc] | %114
 (3[ce][Fcd][FA] (3[EFA][DFA][FA] (3[FBc][DA][FA] | [B,FG]A [Gdg]2 A>c | %116
 [Fc]B/ z/ [Ba][FB] [B^f][Bg] | z2 [Gdg]2 A>c | [Fc]B/ z/ [Ba][FB] [B^f][Bg] | %119
 z2 [cgc']2 [_B_dg]>f | [F_Bf][Ee]/ z/ [e_d'][EBe] [eb][ec'] | z z [cgc']2 [_B_dg]>f | %122
 [_Bf][Ee]/ z/ [e_d'][EBe] [eb][ec'] | [Gcg][F_df]/ z/ [f_e'][Fdf] [dfc'][df_d'] | %124
 [_Ad_a][_G_e_g]/ z/ [gf'][Geg] [egd'][eg_e'] | [_Be_b][_Af_a]/ z/ [a_g'][Afa] [fae'][faf'] | %126
 [B_eb][cc']/ z/ [_ac'_a'][cc'] [fc'f'][^fc'^f'] | [aa'][gg']/ z/ [gf'][ge']/ z/ [gd'][cgc']/ z/ | %128
 [cb][ca]/ z/ [^Fc^f][Fc^d]/ z/ [cb][ca]/ z/ | [ca][cg]/ z/ [Fcf][Fce]/ z/ [Fcd][Fc]/ z/ | %130
 [FBc][FAc]/ z/ [Fc][DFc]/ z/ [FAc][FGc]/ z/ | [ca][Gcg]/ z/ [Gcf][Gce]/ z/ [Gcd][Gc]/ z/ | %132
 [^FBc][FAc]/ z/ [Fc][^DFc]/ z/ [FBc][FAc]/ z/ | [FAc][FGc]/ z/ [Fc][EFc]/ z/ [DFc][CFc]/ z/ | %134
 [DFc][Fc]/ z/ [EFc][DFc]/ z/ [Fc][Fc]/ z/ | (3[ABc]/_B,/_A,/[DF] [FB][G,=B,DF] [^CDB][DF] | %136
 (3[A^c]/D/^C/[^FAc] [GB][DF] B[DF] | (3[^FAc]/F/E/[D=F] [DB][DF] [DB][DF] | %138
 (3[^FA^c]/A/G/[FAc] [DB][DF] [DB][DF] | (3[^F_Ac]/_B/A/[D=F] [D=B][DF] [DB][DF] | %140
 (3[B,DBc]/d/c/[DFB] [DBg][DFB] [DFBe][DFBf] | %141
 (3[B,D^FABcde]/f/e/[D=Fd] [DBc'][DFd] [DFB^a][DFBdb] | %142
 (3[B,D_EFAcdfg]/_a/g/f/[DF]/ [DBe'][DFf] [DBd^c'][DFdfd'] | %143
 (3[DFAc_ab]/_b/a/[G,B,GBg]/[B,DBd]/ [DFdff']/[FGfg]/[GBdg=b]/[Bdbd']/ [GBg=af'][Gd'] | %144
 (3[DFAc_ab]/_b/a/[G,B,GBg]/[B,DBd]/ [DFdff']/[FGfg]/[GBdg=b]/[Bdbd']/ [GBg=af'][Gd'] | %145
 (3[DFAc_ab]/_b/a/[G,B,GBg]/[B,DBd]/ [DFdff']/[FGfg]/[GBdg=b]/[Bdbd']/ [GBg=af'][Gd'] | %146
 (3[DFAca]/b/a/[G,B,GABcg]/[B,DABcd]/ [DFAcdfb]/[FGAcfg]/[GABcgbd']/[GBcdbd'f']/ [GAcfgf'] z | %147
 [D,D^FAdgg'][D,DFAdb]/d'/ g'^c'/c'/ d'e' | f'^f' [D,D^FAdgg'][D,DFAdb]/d'/ g'^c'/c'/ | %149
 d'e' f'^f' [D,D^FAdgg'][D,DFAdb]/d'/ | g'^c'/c'/ d'e' f'^f' | %151
 [_A_a_a'][Ggg'] [=a=a'][gg'] [=Aaa'][Ggg'] | [aa'][gg'] [Gdgg']2 [A,^F^ca]>[C=cc'] | %153
 [Ccc'][B,Bb] [Aaa']>[Ggg'] [Gdgg']2 | [A,^F^ca]>[C=cc'] [Ccc'][B,Bb] [Aaa']>[Ggg'] | z6 | z6 | %157
 z6 | z6 | z6 | z6 | z6 | z6 | z6 | z6 | z6 | z6 | z6 | z6 | z6 | z6 | z6 | z6 | z6 | z6 | z6 | %176
 z6 | z6 | z6 | z6 | z6 | z6 | z6 | z6 | z6 | z6 | z6 | z6 | z6 | z6 | z6 | z6 | z6 | z6 | z6 | %195
 z6 | z6 | z6 | z6 | z6 | z6 | z6 | z6 | z6 | z6 | z6 | z6 | z6 | z6 | z6 | z6 | z6 | z6 | z6 | %214
 z6 | z6 | z6 | z6 | z6 | z6 | z6 | z6 | z6 | z6 | z6 | z6 | z6 | z6 | z6 | z6 | z6 |] %231
V:2
 [F,,A,,_C,]4 [F,,A,,C,] z z2 | [F,,A,,_C,]4 [E,,G,,=C,] z z2 | %2
 [D,,A,,C,]4 F,,/F,,/[A,,C,] z [_C,,A,,] | %3
[K:Eb]!ped! [_C,,A,,_C,]A,,G,,[C,,G,,C,] =C,,_G,,=G,, z!ped-up! | [_F,,B,,_D,]4 [F,,B,,D,] z z2 | %5
 [B,,_D,_F,]4 [A,,C,=F,] z z2 | [G,,^C,F,]4 B,,/B,,/[_D,F,] =C,[D,G,] | %7
!ped! [_F,,_D,F,]=F,,D,C, [F,,C,F,]F,,A,,C,!ped-up! | [_G,C] z G, z [F,_D] z [F,D]/A,/D | %9
 [_G,C] z G, z [F,_D] z [F,D]/A,/D | [A,D] z A, z [_G,E] z [G,E]/B,/E | %11
 [A,D] z A, z [_G,E] z [G,E]/B,/E | %12
!ped! (6:4:6[G,,B,,_D,]/D,/B,,/D,/B,,/D,/ (6:4:6B,,/D,/B,,/D,/B,,/D,/ [E,,B,,]2 D,2!ped-up! | %13
 [D,D]G, =A,>B, B,2 [D,C] z | C,C D>E EC, [G,E] z/ C,/ | C,C D>E EC, [G,E] z/ C,/ | %16
 [__B,,,=B,,]C, _C,/ z/ =C, _C,/ z/ =C, _C,/ z/ =C, |!ped! z2{F,G,A,} [F,=B,D] z z2 z2!ped-up! | %18
 [__B,,,=B,,]C, _C,/ z/ =C, _C,/ z/ =C, _C,/ z/ =C, | %19
!ped! z/ z/ z{F,G,A,} [F,=B,D] z z2 z2!ped-up! |[M:6/8]!ped! [F,CD]F,F, z z2!ped-up! | x2!ped-up! %21
!ped! [G,,E,G,]E,E, z CB,!ped-up! | [_G,__B,][F,A,][_F,=G,] [E,_G,][D,=F,][_D,_F,] | %23
!ped! [C,_F,][_C,D,][C,_D,] [A,,=C,][G,,B,,][D,,F,,]!ped-up! | %24
!ped! [F,,A,,][C,,A,,][B,,,G,,] [C,,A,,][B,,,G,,][_F,,G,,]!ped-up! | %25
!ped! [C,E,G,]2 z z/ C,/D,/E,/F,/G,/!ped-up! | [=E,G,B,_D][E,B,D][E,B,D] z z2 | %27
 [F,,A,,C,][F,,A,,C,][F,,A,,C,] z _D,C, | [G,,_C,]B,,__B,, [A,,_B,,]G,,_G,, | %29
 F,,_F,,E,, D,,[_D,,_D,][C,,C,] | %30
!ped! [B,,,B,,][__B,,,__B,,][_B,,,_B,,] [__B,,,=A,,][_B,,,B,,][__B,,,A,,]!ped-up! | %31
 [A,,A,]C,=E, F, z2 |!ped! [_D,A,_D]E,/F,/_G,/A,/ [=A,,=A,]A,F,!ped-up! | %33
!ped! [_D,A,_D]/F,/_G,/A,/B,/C/ D z2!ped-up! |!ped! [_D,A,_D]E,/F,/_G,/A,/ [=A,,=A,]A,F,!ped-up! | %35
!ped! [_D,A,_D]/F,/_G,/A,/B,/C/ D z2!ped-up! |[K:A]!ped! [A,CEG]B,,/C,/D,/E,/ [=FAc] z2!ped-up! | %37
!ped! [A,CEG]/C,/D,/E,/F,/G,/ [A,E]CA,!ped-up! |!ped! [A,CEG]B,,/C,/D,/E,/ [=FAc] z2!ped-up! | %39
!ped! [A,CEG]/C,/D,/E,/F,/G,/ [A,EG]CA,!ped-up! |!ped! z2 z [A,,G,A,]2 z!ped-up! | %41
 z2 z [F,,A,,E,F,]2 z | [A,,F,A,]2 z [C,F,A,C]2 z | %43
[M:4/4]!ped! [A,CDFA]2 [F,,F,][A,,A,] [A,CDFA][CF]/[CF]/!ped-up! [A,CF][F,,F,]!ped-up! | %44
!ped! [A,CDFA]2 F,A, [A,CDFA][CF]/[CF]/ [A,CDF]F,!ped-up! | %45
!ped! [E,G,B,D]2 [B,,B,][D,D] [G,B,DE][B,F]/[B,F]/ [B,D][B,,B,]!ped-up! | %46
!ped! [E,G,B,D]2 [G,B,E][D,D] [G,DEF][B,F]/[B,F]/ [B,DF][B,,B,]!ped-up! | %47
[M:6/8] [A,,C,E,]2 z [E,G,A,A,]2 z | z2 z [A,,E,F,A,]2 z |[K:bass] [F,A,B,]2 z [C,F,A,C]2 z | %50
[M:4/4]!ped! [A,DFA]2 [F,,F,][A,,A,] [A,DFA][CF]/[CF]/ [A,CF][F,,F,]!ped-up! | %51
!ped! [A,DFA]2 F,A, [A,DFA][CF]/[CF]/ [A,CDF]F,!ped-up! | %52
!ped! [E,G,B,D]2 [B,,B,][D,D] [G,B,DE][B,F]/[B,F]/ [B,D][B,,B,]!ped-up! | %53
!ped! [G,B,D]2 [G,B,E][D,D] [G,DF][B,F]/[B,F]/ [B,DF][B,,B,]!ped-up! | %54
[M:6/8] [A,,C,E,]2 z [A,,E,A,]2 z | z2 z [A,,E,G,A,]2 z | %56
[M:4/4]!ped! z2 [=G,,E,=G,][_E,=C] [A,,A,][A,,=F,][=F,,,=F,,][F,A,C]!ped-up! | %57
[M:6/8] [_B,,D,=F,_B,] z z [B,,F,B,]2 z | z2 z [=F,A,_B,]2 z | %59
[M:4/4]!ped! z2 [G,^EG]=E [F,^A]E[E,,E,]G!ped-up! |[M:6/8] [B,,_E,F,B,]2 z [B,,F,B,]2 z | %61
 z2 z [F,_B,=B,]2 z |[M:4/4]!ped! z2 [F,A,]^E [^^F,,^^F,][B,E][^E,,^E,]A!ped-up! | %63
!ped! [E,,E,]2 [D,,D,]2 [=C,,=C,]2 [_B,,,_B,,]2!ped-up! | %64
!ped! A,,2 [=F,,=F,]2 [_E,,_E,]2 [D,,D,]2!ped-up! | %65
!ped! [C,F,_B,C] z C, z [C,=F,=B,]2 C,,2!ped-up! |!ped! [C,F,C]2 z2 F,C,C, z!ped-up! | %67
!ped! [F,,C,F,] z C, z [B,,_E,F,]2 C,,2!ped-up! |!ped! [C,F,C]2 z2 F,C,C, z!ped-up! | %69
!ped! [A,,C,E,]2 [C,,C,]2 [F,,A,,C,]2 [C,,C,]2!ped-up! |!ped! [C,,F,,A,,C,]2 z2 A,E,C,A,,!ped-up! | %71
!ped! [A,,C,E,]2 [C,,C,]2 [F,,A,,C,]2 [C,,C,]2!ped-up! |!ped! [C,,F,,A,,C,]2 z2 A,E,C,A,,!ped-up! | %73
!ped! [C,,=F,,A,,]2 z2 A,=F,C,A,,!ped-up! |!ped! [C,,F,,A,,]2 z2 A,F,C,B,,!ped-up! | %75
!ped! (3[C,A,]/D,/C,/ z/ [A,C]/ (3=G,,/A,,/G,,/ z/ [A,C]/ (3C,/D,/C,/ z/ [A,C]/ (3=G,/A,/G,/ z/ [A,C]/!ped-up! | %76
!ped! (3[C,A,]/D,/C,/ z/ [A,C]/ (3=G,,/A,,/G,,/ z/ [A,C]/ (3C,/D,/C,/ z/ [A,C]/ (3=G,/A,/G,/ z/ [A,C]/!ped-up! | %77
!ped! (3[=C,A,]/D,/C,/ z/ [A,=C]/ (3=G,,/A,,/G,,/ z/ [A,C]/ (3C,/D,/^C,/ z/ [A,C]/ (3=G,/A,/G,/ z/ [A,C]/!ped-up! | %78
!ped! (3[=C,A,]/D,/C,/ z/ [A,=C]/ (3=G,,/A,,/G,,/ z/ [A,C]/ (3C,/D,/^C,/ z/ [A,C]/ (3=G,/A,/G,/ z/ [A,C]/!ped-up! | %79
[K:C]!ped! [G,CE]2 z2 z2 z2!ped-up! | [G,C]C,E,G, z G,E,C, |!ped! [G,CE]2 z2 z2 z2!ped-up! | %82
 [G,C]C,E,G, z G,E,C, |[M:3/4]!ped! A2 ^F2 [G,,G,]2 | x2!ped-up!!ped! E2 ^C2 [G,,G,]2!ped-up! | %85
!ped! z2 z2 z2!ped-up! |!ped! z2 z2 G,,2!ped-up! |!ped! [G,_B,]2 [F,A,]2 [_E,^F,]2!ped-up! | %88
!ped! [D,F,]2 [C,D,F,]2 [B,,D,]2!ped-up! |[M:4/4]!ped! [CEc]2 z2 [G,F]2!ped-up! z2 | %90
 [G,,C,G,]C,E,G, z G,E,C, |!ped! [CEc]2 z2 [G,F]2 z2!ped-up! | [G,,C,G,]C,E,G, z G,E,C, | %93
[M:3/4]!ped! A2 ^F2 [G,,G,]2 | x2!ped-up!!ped! E2 ^C2 [G,,G,]2!ped-up! | %95
!ped! [G,,G,]2 z2 z2!ped-up! |!ped! z2 z2 G,,2!ped-up! |!ped! [G,_B,]2 [F,A,]2 [_E,^F,]2!ped-up! | %98
!ped! [D,F,]2 [C,D,F,]2 [B,,D,]2!ped-up! |!ped! [B,,F,] z [G,,B,,F,G,]G,, [G,,C,F,]G,,!ped-up! | %100
!ped! [G,,D,F,]G,, [G,,D,F,][G,,D,F,] [G,,D,F,][G,,D,F,]!ped-up! | %101
!ped! G,,G,, [G,,B,,F,G,]G,, [C,F,]G,,!ped-up! | %102
!ped! [G,,D,F,]G,, [G,,D,F,][G,,D,F,] [G,,D,F,][G,,D,F,]!ped-up! | %103
!ped! G,,G,, [G,,E,]G,, [F,_B,]G,,!ped-up! | %104
!ped! [G,_B,]G,, [G,,G,][G,,G,] [G,,G,][G,,G,]!ped-up! | %105
!ped! G,,G,, [G,,E,]G,, [G,,F,]G,,!ped-up! | %106
!ped! [G,_B,]G,, [G,,G,][G,,G,] [G,,G,][G,,G,]!ped-up! | %107
!ped! [_A,_D]G,, [A,D]G,, [A,D]G,,!ped-up! |!ped! [C_E]G,, [CE]G,, [CE]G,,!ped-up! | %109
!ped! [_DF]G,, [DF]G,, [DF]G,,!ped-up! |!ped! [_E_G]G,, [EG]G,, [EG]G,,!ped-up! | %111
!ped! [EG]G,, GG,, GG,,!ped-up! |!ped! [_E^FA]G,, G,,G,, [FA]G,,!ped-up! | %113
!ped! z G,, [FA]G,, G,,G,,!ped-up! |!ped! [CF]G,, CG,, CG,,!ped-up! | %115
!ped! G,,G,, [B,F]G,, [CF]G,,!ped-up! |!ped! DG,, [DF]G,, [DF]G,,!ped-up! | %117
!ped! G,,G,, [B,F]G,, [CF]G,,!ped-up! |!ped! DG,, [DF]G,, [DF]G,,!ped-up! | %119
!ped! G,,G,, [_B,EG]G,, [_A,F]G,,!ped-up! |!ped! [G,,G,]C/ z/ [G,CE][G,,G,] [G,CE][G,,G,]!ped-up! | %121
!ped! G,,G,, [_B,EG]G,, [_A,F]G,,!ped-up! | %122
!ped! [G,_DF]G,,/ z/ [G,CE][G,,G,] [G,CE][G,,G,]!ped-up! | %123
!ped! [_B,E]G,,/ z/ [_A,F]G,, [A,F]G,,!ped-up! | %124
!ped! [B,F]G,,/ z/ [_A,C_E_G]G,, [G,,A,CEG]G,,!ped-up! | %125
!ped! [CE]G,,/ z/ [_DF_A]G,, [F_GA]G,,!ped-up! | %126
!ped! [DF]G,,/ z/ [_E^F][G,,EF]/ z/ [A,EF]G,,/ z/!ped-up! | %127
!ped! [G,EG]G,, [G,E]G,, [G,E]G,,!ped-up! |!ped! [G,_E^F]G,, [G,E]G,, [G,E]G,,!ped-up! | %129
!ped! [G,DF]G,, [G,D]G,, [G,D]G,,!ped-up! |!ped! [G,D]G,, [G,D]G,, [G,D]G,,!ped-up! | %131
!ped! [G,EG]G,, [G,E]G,, [G,E]G,,!ped-up! |!ped! [G,_E]G,, [G,E]G,, [G,E]G,,!ped-up! | %133
 [G,D]G,, [G,D]G,, G,G,, | B,G,,/ z/ z G,,/ z/ A,G,,/ z/ | [G,_A,F][G,B,]/ z/ [G,DE] z G,B, | %136
 [^F,^F][B,D] [DF]B, [F,DF]B, | [G,_A,F][G,B,]/ z/ G,B, G,B, | ^F,[B,D] F,[F,B,] [B,,F,][F,B,] | %139
 [G,,G,]G,, [G,F][B,D] [G,F][B,D] | [_A,F][B,D] [A,DFB][B,DFB] [A,DFB][B,DFB] | %141
 [G,,G,DF][G,,B,D] G,[B,D] [G,F][B,D] | [_A,F][B,D] [A,DFB][A,B,DFB] [B,,A,DFB][A,B,DFB] | %143
!ped! [G,DFB][G,B,DFB] [G,B,DFB][G,B,DFB] [G,DFB][G,B,DFB]!ped-up! | %144
!ped! [G,DFB][G,B,DFB] [G,B,DFB][G,B,DFB] [G,DFB][G,B,DFB]!ped-up! | %145
!ped! [G,DFB][G,B,DFB] [G,B,DFB][G,B,DFB] [G,DFB][G,B,DFB]!ped-up! | %146
!ped! [G,DFB][G,B,DFB] [G,B,DFB][G,B,DFB] [G,DFB][G,B,DFB]!ped-up! | %147
 [G,,B,,G,B,De][G,,G,B,D] z ^C DE | F^F [G,,B,,G,B,De][G,,G,B,D] z ^C | %149
 DE F^F [G,,B,,G,B,De][G,,G,B,D] | z ^C DE F^F | z2 z2 z2 | z2 [G,B,DG]2 [B,,^F,A,B,_E]>[F,C] | %153
 [G,C][D,B,] [DA] z/ [DG]/ [G,B,DG]2 | [B,,^F,A,B,_E]>[F,C] [G,C][D,B,] [DA] z/ [DG]/ | z6 | z6 | %157
 z6 | z6 | z6 | z6 | z6 | z6 | z6 | z6 | z6 | z6 | z6 | z6 | z6 | z6 | z6 | z6 | z6 | z6 | z6 | %176
 z6 | z6 | z6 | z6 | z6 | z6 | z6 | z6 | z6 | z6 | z6 | z6 | z6 | z6 | z6 | z6 | z6 | z6 | z6 | %195
 z6 | z6 | z6 | z6 | z6 | z6 | z6 | z6 | z6 | z6 | z6 | z6 | z6 | z6 | z6 | z6 | z6 | z6 | z6 | %214
 z6 | z6 | z6 | z6 | z6 | z6 | z6 | z6 | z6 | z6 | z6 | z6 | z6 | z6 | z6 | z6 | z6 |] %231

